#ifndef USERPREFS_HAS_SPLASH
#define icon_width 58
#define icon_height 32
static uint8_t icon_bits[] = {
  0x00, 0x60, 0x00, 0x00, 0x00, 0x00, 0x00, 0x00, 0x00, 0xFE, 0x07, 0x00, 
  0x00, 0x00, 0x00, 0x00, 0x00, 0x0F, 0x1F, 0x00, 0x00, 0x00, 0x00, 0x00, 
  0x80, 0x01, 0x38, 0x00, 0x00, 0x00, 0x00, 0x00, 0xE0, 0x00, 0x60, 0x00, 
  0x00, 0x00, 0x00, 0x00, 0x70, 0x00, 0xC0, 0x00, 0x00, 0x00, 0x00, 0x00, 
  0x18, 0x00, 0x00, 0x03, 0x00, 0x00, 0x78, 0x00, 0x08, 0x20, 0x01, 0x06, 
  0x00, 0x00, 0xFC, 0x00, 0x00, 0x00, 0x02, 0x0C, 0x00, 0x00, 0xFC, 0x01, 
  0x04, 0x04, 0x10, 0x08, 0x00, 0x00, 0xFC, 0x01, 0x04, 0x00, 0x00, 0x10, 
  0x00, 0x00, 0xF8, 0x01, 0x06, 0xF0, 0x07, 0x70, 0x00, 0x00, 0xF0, 0x01, 
  0x06, 0xF0, 0x0F, 0xC0, 0x00, 0x00, 0xE0, 0x01, 0x06, 0xF8, 0x1F, 0x82, 
  0x01, 0x00, 0xE0, 0x01, 0x06, 0xF8, 0x3F, 0x00, 0x03, 0x00, 0xA0, 0x01, 
  0x06, 0xF0, 0x3F, 0x00, 0x06, 0x00, 0xA0, 0x01, 0x06, 0xF0, 0x7F, 0x08, 
  0x1C, 0x00, 0x90, 0x01, 0x04, 0xC0, 0xFF, 0x01, 0xE0, 0x81, 0xCF, 0x00, 
  0x00, 0x82, 0xFF, 0x23, 0x80, 0xFF, 0xC3, 0x00, 0x08, 0x80, 0xFF, 0x47, 
  0x00, 0x3C, 0x60, 0x00, 0x18, 0x00, 0xFC, 0x0F, 0x00, 0x00, 0x60, 0x00, 
  0x30, 0x10, 0xE0, 0x0F, 0x02, 0x00, 0x20, 0x00, 0xC0, 0x80, 0x00, 0x00, 
  0x80, 0x0C, 0x1C, 0x00, 0x80, 0x01, 0x0C, 0x00, 0x00, 0x0C, 0x0E, 0x00, 
  0x00, 0x03, 0x40, 0x36, 0x9B, 0x00, 0x03, 0x00, 0x00, 0x06, 0x00, 0x00, 
  0x00, 0xC0, 0x01, 0x00, 0x00, 0x1C, 0x00, 0x00, 0x00, 0x60, 0x00, 0x00, 
  0x00, 0x70, 0x00, 0x00, 0x00, 0x38, 0x00, 0x00, 0x00, 0x80, 0x1F, 0x00, 
  0xE0, 0x07, 0x00, 0x00, 0x00, 0x00, 0xFC, 0xFF, 0xFF, 0x00, 0x00, 0x00, 
  0x00, 0x00, 0xC0, 0xFF, 0x07, 0x00, 0x00, 0x00, 0x00, 0x00, 0x00, 0x00, 
  0x00, 0x00, 0x00, 0x00, };
#endif